app/dist/common/images/anhui-hengyuan-coal-industry-and-electricity-power.svg

<svg height="18" viewBox="0 0 18 18" width="18" xmlns="http://www.w3.org/2000/svg"><path d="m0 0h18v18h-18z" fill="#f0f3fa"/><path d="m10 12v-6h1v2.5h2v-2.5h1v6h-1v-2.5h-2v2.5zm-5.97 0h-1.03l2.33-6h1.12l2.33 6h-1.04l-1.82-4.91h-.06zm.18-2.35h3.36v.76h-3.37v-.76z" fill="#054483"/></svg>

<!-- by TradingView --><svg width="18" height="18" viewBox="0 0 18 18" xmlns="http://www.w3.org/2000/svg"><path fill="#F0F3FA" d="M0 0h18v18H0z"/><path d="M10 12V6h1v2.5h2V6h1v6h-1V9.5h-2V12h-1ZM4.03 12H3l2.33-6h1.12l2.33 6H7.74L5.92 7.09h-.06L4.03 12Zm.18-2.35h3.36v.76H4.2v-.76Z" fill="#054483"/></svg>
